img/s-vk.svg

<svg width="24px" height="24px" viewBox="0 0 24 24" version="1.1" xmlns="http://www.w3.org/2000/svg" xmlns:xlink="http://www.w3.org/1999/xlink">
    <defs>
        <path d="M19.5687324,10.4061858 C17.7513278,12.7615057 17.5540576,12.5408222 19.052472,13.9003417 C20.4963223,15.2053715 20.7957253,15.8360904 20.843294,15.9178251 C20.843294,15.9178251 21.4434992,16.9395081 20.1787312,16.9490438 L17.7793094,16.9858244 C17.263049,17.0852682 16.578899,16.6289165 16.578899,16.6289165 C15.6792908,16.0268046 14.8356457,14.4670352 14.1794773,14.6672851 C14.1794773,14.6672851 13.5051209,14.8770706 13.5233089,16.2829065 C13.5331025,16.5839624 13.3834009,16.7487939 13.3834009,16.7487939 C13.3834009,16.7487939 13.2141123,16.9217989 12.8867276,16.9490438 L11.8094362,16.9490438 C9.43799609,17.0948039 7.34777098,14.968341 7.34777098,14.968341 C7.34777098,14.968341 5.06027562,12.6688731 3.05539438,8.07947299 C2.92527996,7.77841706 3.06518793,7.63265695 3.06518793,7.63265695 C3.06518793,7.63265695 3.20509591,7.45828972 3.59823731,7.45828972 L6.16694769,7.44058055 C6.41038756,7.47736113 6.57967621,7.60404983 6.57967621,7.60404983 C6.57967621,7.60404983 6.72937774,7.70485588 6.80352896,7.89693229 C7.22605104,8.91861531 7.76889398,9.84902797 7.76889398,9.84902797 C8.70627739,11.7289247 9.34425775,12.0490521 9.70941756,11.8569757 C9.70941756,11.8569757 10.1879028,11.5736289 10.0843709,9.30140588 C10.0465958,8.47997273 9.81294946,8.10671787 9.81294946,8.10671787 C9.59749118,7.82337111 9.19315714,7.74163647 9.01687309,7.71439159 C8.87556604,7.69668242 9.10921236,7.36838161 9.41980805,7.22125926 C9.87870621,7.00193797 10.6929706,6.99376451 11.6583356,7.00193797 C12.4180359,7.01147368 12.6334942,7.05778998 12.9231037,7.1204532 C13.8143175,7.33160102 13.5149144,8.13396275 13.5149144,10.0683493 C13.5149144,10.6895325 13.3917954,11.5559197 13.8520926,11.8392665 C14.0493629,11.9673174 14.5362426,11.8569757 15.7352539,9.86809939 C15.7352539,9.86809939 16.297684,8.91861531 16.7383941,7.81519765 C16.8139444,7.61358554 16.9734395,7.53185089 16.9734395,7.53185089 C16.9734395,7.53185089 17.121742,7.45011625 17.3288058,7.47736113 L20.0276305,7.45828972 C20.843294,7.3588459 20.9748075,7.7239273 20.9748075,7.7239273 C21.1147155,8.09718216 20.6754045,8.97310507 19.5687324,10.4061858" id="path-1"></path>
    </defs>
    <g id="Material/Icons-black/s_vk" stroke="none" stroke-width="1" fill="none" fill-rule="evenodd">
        <polygon id="Shape" points="0 0 24 0 24 24 0 24"></polygon>
        <mask id="mask-2" fill="white">
            <use xlink:href="#path-1"></use>
        </mask>
        <use id="Shape" fill="#9C9C9C" fill-rule="nonzero" xlink:href="#path-1"></use>
        <g id="UI/Color/Flat/Icon-Color" mask="url(#mask-2)" fill="#9C9C9C">
            <rect id="Base" x="0" y="0" width="24" height="24"></rect>
        </g>
    </g>
</svg>

<svg xmlns="http://www.w3.org/2000/svg" xmlns:xlink="http://www.w3.org/1999/xlink" width="24" height="24" viewBox="0 0 24 24">
    <defs>
        <path id="vk-a" d="M19.569 10.406c-1.818 2.356-2.015 2.135-.517 3.494 1.444 1.305 1.744 1.936 1.791 2.018 0 0 .6 1.022-.664 1.031l-2.4.037c-.516.1-1.2-.357-1.2-.357-.9-.602-1.743-2.162-2.4-1.962 0 0-.674.21-.656 1.616.01.301-.14.466-.14.466s-.169.173-.496.2h-1.078c-2.371.146-4.461-1.98-4.461-1.98s-2.288-2.3-4.293-6.89c-.13-.3.01-.446.01-.446s.14-.175.533-.175l2.569-.017c.243.036.413.163.413.163s.15.1.224.293a18.26 18.26 0 0 0 .965 1.952c.937 1.88 1.575 2.2 1.94 2.008 0 0 .479-.283.375-2.556-.037-.821-.271-1.194-.271-1.194-.216-.284-.62-.365-.796-.393-.141-.017.092-.346.403-.493.459-.22 1.273-.227 2.238-.22.76.01.975.057 1.265.12.891.21.592 1.013.592 2.947 0 .622-.123 1.488.337 1.771.197.128.684.018 1.883-1.97 0 0 .563-.95 1.003-2.054a.549.549 0 0 1 .235-.283s.149-.082.356-.055l2.699-.019c.815-.1.947.266.947.266.14.373-.3 1.25-1.406 2.682"/>
    </defs>
    <g fill="none" fill-rule="evenodd">
        <path d="M0 0h24v24H0z"/>
        <mask id="vk-b" fill="#fff">
            <use xlink:href="#vk-a"/>
        </mask>
        <use fill="#000" fill-rule="nonzero" xlink:href="#vk-a"/>
        <g fill="#9C9C9C" mask="url(#vk-b)">
            <path d="M0 0h24v24H0z"/>
        </g>
    </g>
</svg>
